polaris-icons/icons/new-icons/PlayMinor.svg

<svg width="20" height="20" viewBox="0 0 20 20" fill="none" xmlns="http://www.w3.org/2000/svg">
<path fill-rule="evenodd" clip-rule="evenodd" d="M15.375 8.48516C16.5417 9.15874 16.5417 10.8427 15.375 11.5163L7.875 15.8464C6.70833 16.52 5.25 15.678 5.25 14.3308L5.25 5.67058C5.25 4.32343 6.70834 3.48146 7.875 4.15503L15.375 8.48516ZM14.625 10.2172C14.7917 10.121 14.7917 9.88042 14.625 9.7842L7.125 5.45407C6.95833 5.35785 6.75 5.47813 6.75 5.67058L6.75 14.3308C6.75 14.5233 6.95833 14.6436 7.125 14.5473L14.625 10.2172Z" fill="#4A4A4A"/>
</svg>

<svg viewBox="0 0 20 20" xmlns="http://www.w3.org/2000/svg"><path fill-rule="evenodd" d="M15.375 8.485c1.167.674 1.167 2.358 0 3.031l-7.5 4.33c-1.167.674-2.625-.168-2.625-1.515v-8.66c0-1.348 1.458-2.19 2.625-1.516l7.5 4.33Zm-.75 1.732a.25.25 0 0 0 0-.433l-7.5-4.33a.25.25 0 0 0-.375.217v8.66a.25.25 0 0 0 .375.216l7.5-4.33Z" fill="#5C5F62"/></svg>
